images/client5.svg

<svg width="170" height="90" fill="none" xmlns="http://www.w3.org/2000/svg"><rect x=".5" y=".5" width="169" height="89" rx="3.5" stroke="#AFB1B8"/><path d="M60.4876 61.2777c.2299.2856.3524.6434.346 1.0106a1.6049 1.6049 0 01-.1232.6996 1.5986 1.5986 0 01-.4129.577 2.3176 2.3176 0 01-1.5582.4662H56v-6.4049h2.6832a2.284 2.284 0 011.4866.4255c.1733.1456.3105.3297.4008.5376.0903.208.1313.4342.1196.6608a1.4873 1.4873 0 01-.3116.9794 1.455 1.455 0 01-.8165.5006c.3634.0666.6914.2606.9255.5476zm-3.213-.9669h1.1469a1.0842 1.0842 0 00.7292-.2128.7601.7601 0 00.1958-.284.7638.7638 0 00.0504-.3418.7875.7875 0 00-.2431-.6257 1.1054 1.1054 0 00-.751-.2159h-1.1282v1.6802zm1.9883 2.4562a.7944.7944 0 00.2114-.2935.7976.7976 0 00.0597-.3573.8078.8078 0 00-.2773-.6571 1.181 1.181 0 00-.7791-.2315h-1.203v1.7616h1.2185a1.2057 1.2057 0 00.7698-.2222zM65.9724 64.0312l-1.4927-2.5032h-.561v2.5032h-1.2839v-6.405h2.4308a2.3904 2.3904 0 011.6922.5444 2.049 2.049 0 01.1807 2.6503 1.971 1.971 0 01-1.1593.6508l1.5894 2.5595h-1.3962zm-2.0537-3.3762h1.0503c.7292 0 1.0938-.3233 1.0938-.9699a.9553.9553 0 00-.0587-.3881.9547.9547 0 00-.2093-.3316 1.1342 1.1342 0 00-.8258-.2597h-1.0627l.0124 1.9493zM72.9908 62.7421h-2.5586l-.4519 1.2891H68.634l2.3498-6.333h1.4554l2.3404 6.333h-1.3463l-.4425-1.2891zm-.3428-.97l-.9349-2.7034-.935 2.7034h1.8699zM81.7759 64.0312h-1.2746l-2.8577-4.3555v4.3555h-1.2715v-6.405h1.2715l2.8577 4.3806v-4.3806h1.2746v6.405zM89.0497 62.4981a2.7565 2.7565 0 01-1.1531 1.1295 3.7426 3.7426 0 01-1.7919.4037h-2.2688v-6.405h2.2688a3.8157 3.8157 0 011.7919.3943 2.7096 2.7096 0 011.1531 1.117 3.7351 3.7351 0 01.3991 1.6802 3.7352 3.7352 0 01-.3991 1.6803zm-1.4585-.1533a2.3524 2.3524 0 00.5638-1.5285c0-.5608-.2-1.103-.5638-1.5285a2.2103 2.2103 0 00-1.5956-.5445h-.885v4.1459h.885a2.2102 2.2102 0 001.5956-.5444zM73.7886 22s16.4515 6.236 16.1025 15.2599v15.263s-16.4391-6.2391-16.0963-15.263L73.7886 22zM104.548 48.9497A22.4855 22.4855 0 01115 45.0824v-4.778c-4.323 1.6728-7.99 4.7058-10.452 8.6453z" fill="#AFB1B8"/><path d="M102.681 50.3889c2.543-5.1412 6.952-9.1085 12.319-11.0859V25.5356s-23.4292 8.8831-22.9337 21.7337v21.7306s1.044-.3974 2.6864-1.1421c0-.6946 0-1.3955.0748-2.0995.4849-5.9658 3.3097-11.4942 7.8535-15.3694z" fill="#AFB1B8"/><path d="M100.453 58.4616a22.492 22.492 0 01.819-4.4494c-2.8291 3.3466-4.5424 7.4994-4.8989 11.8744-.0343.413-.053.826-.0623 1.2516 1.3307-.6415 2.8796-1.4425 4.5062-2.3843a22.5545 22.5545 0 01-.364-6.2923zM101.384 58.5398a21.5944 21.5944 0 00.29 5.6979c6.401-3.8455 13.594-9.7874 13.317-16.9684v-.6257c-4.574.5137-8.853 2.521-12.179 5.7134a21.5132 21.5132 0 00-1.428 6.1828z" fill="#AFB1B8"/></svg>

<svg width="170" height="90" viewBox="0 0 170 90" fill="none" xmlns="http://www.w3.org/2000/svg">
<rect x="0.5" y="0.5" width="169" height="89" rx="3.5" stroke="#AFB1B8"/>
<path d="M60.4876 61.2777C60.7175 61.5633 60.84 61.9211 60.8336 62.2883C60.8453 62.5278 60.8032 62.7669 60.7104 62.9879C60.6176 63.2089 60.4765 63.4061 60.2975 63.5649C59.851 63.9036 59.2977 64.0691 58.7393 64.0311H56V57.6262H58.6832C59.2129 57.5908 59.7383 57.7412 60.1698 58.0517C60.3431 58.1973 60.4803 58.3814 60.5706 58.5893C60.6609 58.7973 60.7019 59.0235 60.6902 59.2501C60.706 59.6034 60.5954 59.9508 60.3786 60.2295C60.1704 60.4839 59.8826 60.6604 59.5621 60.7301C59.9255 60.7967 60.2535 60.9907 60.4876 61.2777ZM57.2746 60.3108H58.4215C58.6821 60.3302 58.941 60.2546 59.1507 60.098C59.2368 60.0197 59.3038 59.9225 59.3465 59.814C59.3892 59.7055 59.4064 59.5885 59.3969 59.4722C59.405 59.3564 59.3874 59.2402 59.3453 59.1319C59.3033 59.0237 59.2379 58.9262 59.1538 58.8465C58.9378 58.6854 58.6709 58.6087 58.4028 58.6306H57.2746V60.3108ZM59.2629 62.767C59.3549 62.6868 59.4273 62.5864 59.4743 62.4735C59.5213 62.3606 59.5418 62.2383 59.534 62.1162C59.541 61.9927 59.5197 61.8692 59.4716 61.7552C59.4235 61.6413 59.35 61.54 59.2567 61.4591C59.0323 61.2921 58.7563 61.2101 58.4776 61.2276H57.2746V62.9892H58.4931C58.7674 63.0051 59.0389 62.9267 59.2629 62.767Z" fill="#AFB1B8"/>
<path d="M65.9724 64.0312L64.4797 61.528H63.9187V64.0312H62.6348V57.6262H65.0656C65.6783 57.5833 66.284 57.7781 66.7578 58.1706C67.0976 58.5183 67.3025 58.9763 67.3357 59.4622C67.3688 59.9482 67.228 60.43 66.9385 60.8209C66.6386 61.1658 66.229 61.3958 65.7792 61.4717L67.3686 64.0312H65.9724ZM63.9187 60.655H64.969C65.6982 60.655 66.0628 60.3317 66.0628 59.6851C66.0703 59.553 66.0503 59.4208 66.0041 59.297C65.958 59.1731 65.8867 59.0602 65.7948 58.9654C65.5644 58.773 65.2676 58.6796 64.969 58.7057H63.9063L63.9187 60.655Z" fill="#AFB1B8"/>
<path d="M72.9908 62.7421H70.4322L69.9803 64.0312H68.634L70.9838 57.6982H72.4392L74.7796 64.0312H73.4333L72.9908 62.7421ZM72.648 61.7721L71.7131 59.0687L70.7781 61.7721H72.648Z" fill="#AFB1B8"/>
<path d="M81.7759 64.0312H80.5013L77.6436 59.6757V64.0312H76.3721V57.6262H77.6436L80.5013 62.0068V57.6262H81.7759V64.0312Z" fill="#AFB1B8"/>
<path d="M89.0497 62.4981C88.7862 62.9817 88.3846 63.375 87.8966 63.6276C87.3418 63.909 86.7261 64.0477 86.1047 64.0313H83.8359V57.6263H86.1047C86.725 57.61 87.3399 57.7453 87.8966 58.0206C88.3845 58.2674 88.7865 58.6569 89.0497 59.1376C89.3121 59.6585 89.4488 60.2341 89.4488 60.8178C89.4488 61.4016 89.3121 61.9772 89.0497 62.4981ZM87.5912 62.3448C87.955 61.9193 88.155 61.377 88.155 60.8163C88.155 60.2555 87.955 59.7133 87.5912 59.2878C87.1515 58.9024 86.5781 58.7067 85.9956 58.7433H85.1106V62.8892H85.9956C86.5781 62.9258 87.1515 62.7302 87.5912 62.3448Z" fill="#AFB1B8"/>
<path d="M73.7886 22C73.7886 22 90.2401 28.236 89.8911 37.2599V52.5229C89.8911 52.5229 73.452 46.2838 73.7948 37.2599L73.7886 22Z" fill="#AFB1B8"/>
<path d="M104.548 48.9497C107.655 46.8029 111.249 45.4732 115 45.0824V40.3044C110.677 41.9772 107.01 45.0102 104.548 48.9497Z" fill="#AFB1B8"/>
<path d="M102.681 50.3889C105.224 45.2477 109.633 41.2804 115 39.303V25.5356C115 25.5356 91.5708 34.4187 92.0663 47.2693V68.9999C92.0663 68.9999 93.1103 68.6025 94.7527 67.8578C94.7527 67.1632 94.7527 66.4623 94.8275 65.7583C95.3124 59.7925 98.1372 54.2641 102.681 50.3889Z" fill="#AFB1B8"/>
<path d="M100.453 58.4616C100.576 56.9545 100.85 55.4638 101.272 54.0122C98.4429 57.3588 96.7296 61.5116 96.3731 65.8866C96.3388 66.2996 96.3201 66.7126 96.3108 67.1382C97.6415 66.4967 99.1904 65.6957 100.817 64.7539C100.402 62.684 100.279 60.5658 100.453 58.4616Z" fill="#AFB1B8"/>
<path d="M101.384 58.5398C101.228 60.4436 101.326 62.3597 101.674 64.2377C108.075 60.3922 115.268 54.4503 114.991 47.2693V46.6436C110.417 47.1573 106.138 49.1646 102.812 52.357C102.033 54.3354 101.552 56.4192 101.384 58.5398Z" fill="#AFB1B8"/>
</svg>
